images/Perpetual_Protocol-logo.svg

<svg width="425" height="60" viewBox="0 0 425 60" fill="none" xmlns="http://www.w3.org/2000/svg">
<path fill-rule="evenodd" clip-rule="evenodd" d="M112.675 29.0855C113.989 27.8942 114.645 26.0615 114.645 23.5873V18.364C114.645 15.8898 113.973 14.0876 112.629 12.9574C111.316 11.7967 109.361 11.2163 106.765 11.2163H98.563V43.2892H102.549V30.8266H106.856C109.422 30.8266 111.362 30.2463 112.675 29.0855ZM109.835 15.4316C110.384 15.9509 110.659 16.7909 110.659 17.9516V24.0455C110.659 25.2062 110.384 26.0615 109.835 26.6113C109.315 27.1306 108.475 27.3902 107.315 27.3902H102.549V14.6527H107.315C108.475 14.6527 109.315 14.9123 109.835 15.4316Z" fill="white"/>
<path fill-rule="evenodd" clip-rule="evenodd" d="M120.65 41.5939C121.902 42.724 123.872 43.2891 126.56 43.2891H132.471V39.8527H126.102C124.972 39.8527 124.117 39.5931 123.536 39.0738C122.956 38.5546 122.666 37.8214 122.666 36.8745V33.4381H133.937V27.4817C133.937 25.1602 133.373 23.4039 132.242 22.2126C131.142 20.9908 129.509 20.3799 127.34 20.3799H126.102C123.476 20.3799 121.597 20.9449 120.467 22.0751C119.336 23.2054 118.772 25.0839 118.772 27.7108V35.9581C118.772 38.5546 119.398 40.4331 120.65 41.5939ZM130.134 26.5654V30.0017H122.666V26.7945C122.666 25.817 122.88 25.0839 123.308 24.5952C123.766 24.0759 124.544 23.8162 125.644 23.8162H127.385C128.18 23.8162 128.837 24.0759 129.356 24.5952C129.875 25.1144 130.134 25.7712 130.134 26.5654Z" fill="white"/>
<path d="M140.573 20.3799H144.239V21.6169C145.247 20.7922 146.469 20.3799 147.904 20.3799H151.249V24.0454H147.446C146.438 24.0454 145.689 24.3814 145.201 25.0534C144.712 25.7254 144.468 26.3821 144.468 27.0235V43.2891H140.573V20.3799Z" fill="white"/>
<path fill-rule="evenodd" clip-rule="evenodd" d="M159.496 20.3799H155.831V51.0783H159.726V43.2891H163.895C166.553 43.2891 168.507 42.7087 169.76 41.548C171.043 40.3873 171.684 38.524 171.684 35.9581V27.7108C171.684 25.1144 171.058 23.2512 169.806 22.1209C168.553 20.9602 166.583 20.3799 163.895 20.3799H163.162C161.665 20.3799 160.443 20.7464 159.496 21.4795V20.3799ZM160.458 24.641C160.947 24.0912 161.696 23.8162 162.704 23.8162H164.353C165.483 23.8162 166.338 24.0759 166.919 24.5952C167.499 25.1144 167.79 25.8475 167.79 26.7945V36.8745C167.79 37.8214 167.499 38.5546 166.919 39.0738C166.338 39.5931 165.483 39.8527 164.353 39.8527H159.726V26.3362C159.726 25.7254 159.97 25.1602 160.458 24.641Z" fill="white"/>
<path fill-rule="evenodd" clip-rule="evenodd" d="M179.982 41.5939C181.234 42.724 183.204 43.2891 185.892 43.2891H191.803V39.8527H185.434C184.304 39.8527 183.449 39.5931 182.868 39.0738C182.288 38.5546 181.998 37.8214 181.998 36.8745V33.4381H193.269V27.4817C193.269 25.1602 192.704 23.4039 191.574 22.2126C190.474 20.9908 188.84 20.3799 186.671 20.3799H185.434C182.807 20.3799 180.929 20.9449 179.799 22.0751C178.668 23.2054 178.103 25.0839 178.103 27.7108V35.9581C178.103 38.5546 178.729 40.4331 179.982 41.5939ZM189.466 26.5654V30.0017H181.998V26.7945C181.998 25.817 182.211 25.0839 182.639 24.5952C183.097 24.0759 183.876 23.8162 184.976 23.8162H186.717C187.511 23.8162 188.168 24.0759 188.687 24.5952C189.207 25.1144 189.466 25.7712 189.466 26.5654Z" fill="white"/>
<path d="M204.945 43.2893C203.387 43.2893 202.195 42.7853 201.371 41.7773C200.546 40.7693 200.133 39.4406 200.133 37.7911V23.8164H197.155V20.3801H200.133V14.8818H204.028V20.3801H209.343V23.8164H204.028V38.0202C204.028 38.6922 204.196 39.1656 204.532 39.4406C204.868 39.7155 205.387 39.8529 206.09 39.8529H209.343V43.2893H204.945Z" fill="white"/>
<path d="M225.542 42.2353C224.534 42.9379 223.312 43.2891 221.877 43.2891H221.235C218.761 43.2891 216.913 42.7087 215.691 41.548C214.5 40.3873 213.904 38.524 213.904 35.9581V20.3799H217.799V36.8745C217.799 37.7909 218.058 38.524 218.577 39.0738C219.127 39.5931 219.861 39.8527 220.777 39.8527H222.335C223.312 39.8527 224.03 39.6084 224.488 39.1196C224.977 38.6309 225.252 38.0811 225.313 37.4701V20.3799H229.208V43.2891H225.542V42.2353Z" fill="white"/>
<path fill-rule="evenodd" clip-rule="evenodd" d="M248.738 42.9226C249.227 43.1669 249.669 43.2891 250.067 43.2891H252.587V40.0818C251.762 40.0818 251.166 39.9749 250.8 39.7611C250.464 39.5167 250.296 39.1654 250.296 38.7073V27.7108C250.296 25.145 249.654 23.2817 248.372 22.1209C247.119 20.9602 245.164 20.3799 242.507 20.3799H236.779V23.8162H242.965C244.095 23.8162 244.95 24.0759 245.531 24.5952C246.111 25.1144 246.402 25.8475 246.402 26.7945V29.0854H241.636C237.177 29.0854 234.947 31.4527 234.947 36.1873V37.1036C234.947 39.364 235.466 40.9676 236.505 41.9146C237.573 42.8309 239.269 43.2891 241.59 43.2891H244.752C245.913 43.2891 246.844 42.8309 247.547 41.9146C247.883 42.3422 248.28 42.6782 248.738 42.9226ZM246.035 39.2113C245.79 39.6389 245.21 39.8527 244.293 39.8527H241.132C240.338 39.8527 239.757 39.6694 239.391 39.3029C239.025 38.9364 238.842 38.356 238.842 37.5618V35.2709C238.842 34.4767 239.101 33.82 239.62 33.3007C240.139 32.7814 240.796 32.5218 241.59 32.5218H246.402V37.5618C246.402 38.2338 246.279 38.7836 246.035 39.2113Z" fill="white"/>
<path d="M261.738 43.2892C260.7 43.2892 259.783 42.9227 258.989 42.1896C258.225 41.4565 257.844 40.2958 257.844 38.7074V11.2163H261.738V38.4783C261.738 38.9671 261.86 39.3184 262.104 39.5321C262.349 39.7459 262.761 39.8529 263.342 39.8529H264.258V43.2892H261.738Z" fill="white"/>
<path fill-rule="evenodd" clip-rule="evenodd" d="M295.77 29.0855C297.083 27.8942 297.74 26.0615 297.74 23.5873V18.364C297.74 15.8898 297.068 14.0876 295.724 12.9574C294.411 11.7967 292.456 11.2163 289.859 11.2163H281.658V43.2892H285.644V30.8266H289.951C292.517 30.8266 294.457 30.2463 295.77 29.0855ZM292.929 15.4316C293.479 15.9509 293.754 16.7909 293.754 17.9516V24.0455C293.754 25.2062 293.479 26.0615 292.929 26.6113C292.41 27.1306 291.57 27.3902 290.409 27.3902H285.644V14.6527H290.409C291.57 14.6527 292.41 14.9123 292.929 15.4316Z" fill="white"/>
<path d="M303.489 20.3799H307.154V21.6169C308.162 20.7922 309.384 20.3799 310.819 20.3799H314.164V24.0454H310.361C309.353 24.0454 308.604 24.3814 308.116 25.0534C307.627 25.7254 307.383 26.3821 307.383 27.0235V43.2891H303.489V20.3799Z" fill="white"/>
<path fill-rule="evenodd" clip-rule="evenodd" d="M331.866 41.548C333.149 40.3873 333.791 38.524 333.791 35.9581V27.7108C333.791 25.145 333.149 23.2817 331.866 22.1209C330.614 20.9602 328.659 20.3799 326.001 20.3799H325.406C322.748 20.3799 320.778 20.9602 319.495 22.1209C318.243 23.2817 317.617 25.145 317.617 27.7108V35.9581C317.617 38.524 318.243 40.3873 319.495 41.548C320.778 42.7087 322.748 43.2891 325.406 43.2891H326.001C328.659 43.2891 330.614 42.7087 331.866 41.548ZM329.025 24.5952C329.606 25.1144 329.896 25.8475 329.896 26.7945V36.8745C329.896 37.8214 329.606 38.5546 329.025 39.0738C328.445 39.5931 327.59 39.8527 326.459 39.8527H324.947C323.817 39.8527 322.962 39.5931 322.382 39.0738C321.801 38.5546 321.511 37.8214 321.511 36.8745V26.7945C321.511 25.8475 321.801 25.1144 322.382 24.5952C322.962 24.0759 323.817 23.8162 324.947 23.8162H326.459C327.59 23.8162 328.445 24.0759 329.025 24.5952Z" fill="white"/>
<path d="M345.711 43.2893C344.153 43.2893 342.962 42.7853 342.137 41.7773C341.312 40.7693 340.9 39.4406 340.9 37.7911V23.8164H337.922V20.3801H340.9V14.8818H344.795V20.3801H350.109V23.8164H344.795V38.0202C344.795 38.6922 344.963 39.1656 345.299 39.4406C345.635 39.7155 346.154 39.8529 346.856 39.8529H350.109V43.2893H345.711Z" fill="white"/>
<path fill-rule="evenodd" clip-rule="evenodd" d="M368.691 41.548C369.974 40.3873 370.616 38.524 370.616 35.9581V27.7108C370.616 25.145 369.974 23.2817 368.691 22.1209C367.439 20.9602 365.484 20.3799 362.826 20.3799H362.231C359.573 20.3799 357.603 20.9602 356.32 22.1209C355.067 23.2817 354.441 25.145 354.441 27.7108V35.9581C354.441 38.524 355.067 40.3873 356.32 41.548C357.603 42.7087 359.573 43.2891 362.231 43.2891H362.826C365.484 43.2891 367.439 42.7087 368.691 41.548ZM365.85 24.5952C366.431 25.1144 366.721 25.8475 366.721 26.7945V36.8745C366.721 37.8214 366.431 38.5546 365.85 39.0738C365.27 39.5931 364.415 39.8527 363.284 39.8527H361.772C360.642 39.8527 359.787 39.5931 359.207 39.0738C358.626 38.5546 358.336 37.8214 358.336 36.8745V26.7945C358.336 25.8475 358.626 25.1144 359.207 24.5952C359.787 24.0759 360.642 23.8162 361.772 23.8162H363.284C364.415 23.8162 365.27 24.0759 365.85 24.5952Z" fill="white"/>
<path d="M384.827 43.2891C382.139 43.2891 380.169 42.724 378.916 41.5939C377.664 40.4331 377.038 38.5546 377.038 35.9581V27.7108C377.038 25.145 377.664 23.2817 378.916 22.1209C380.199 20.9602 382.17 20.3799 384.827 20.3799H389.821V23.8162H384.369C383.238 23.8162 382.383 24.0759 381.803 24.5952C381.222 25.1144 380.932 25.8475 380.932 26.7945V36.8745C380.932 37.8214 381.222 38.5546 381.803 39.0738C382.383 39.5931 383.238 39.8527 384.369 39.8527H389.821V43.2891H384.827Z" fill="white"/>
<path fill-rule="evenodd" clip-rule="evenodd" d="M409.14 41.548C410.423 40.3873 411.065 38.524 411.065 35.9581V27.7108C411.065 25.145 410.423 23.2817 409.14 22.1209C407.888 20.9602 405.933 20.3799 403.275 20.3799H402.68C400.022 20.3799 398.052 20.9602 396.769 22.1209C395.517 23.2817 394.891 25.145 394.891 27.7108V35.9581C394.891 38.524 395.517 40.3873 396.769 41.548C398.052 42.7087 400.022 43.2891 402.68 43.2891H403.275C405.933 43.2891 407.888 42.7087 409.14 41.548ZM406.299 24.5952C406.88 25.1144 407.17 25.8475 407.17 26.7945V36.8745C407.17 37.8214 406.88 38.5546 406.299 39.0738C405.719 39.5931 404.864 39.8527 403.733 39.8527H402.221C401.091 39.8527 400.236 39.5931 399.656 39.0738C399.075 38.5546 398.785 37.8214 398.785 36.8745V26.7945C398.785 25.8475 399.075 25.1144 399.656 24.5952C400.236 24.0759 401.091 23.8162 402.221 23.8162H403.733C404.864 23.8162 405.719 24.0759 406.299 24.5952Z" fill="white"/>
<path d="M421.611 43.2892C420.572 43.2892 419.655 42.9227 418.861 42.1896C418.098 41.4565 417.716 40.2958 417.716 38.7074V11.2163H421.611V38.4783C421.611 38.9671 421.733 39.3184 421.977 39.5321C422.222 39.7459 422.634 39.8529 423.214 39.8529H424.131V43.2892H421.611Z" fill="white"/>
<path fill-rule="evenodd" clip-rule="evenodd" d="M22.8642 1.61136C24.9587 -0.483085 28.3545 -0.483085 30.4489 1.61136L47.9885 19.1509L40.8779 26.2616L26.6566 12.0403L12.4353 26.2616L19.5459 33.3722L26.6566 26.2616L33.7672 33.3722L26.6566 40.4829L37.3225 51.1488C39.2861 53.1124 39.2861 56.2959 37.3225 58.2595C35.359 60.223 32.1755 60.223 30.2119 58.2595L2.00636 30.0539C-0.0880581 27.9595 -0.0880581 24.5637 2.00636 22.4692L22.8642 1.61136Z" fill="white"/>
<path fill-rule="evenodd" clip-rule="evenodd" d="M37.0855 1.61133C39.1799 -0.483123 42.5757 -0.483048 44.6701 1.6114L65.5279 22.4692C67.6224 24.5637 67.6224 27.9594 65.5279 30.0539L37.5595 58.0224C35.465 60.1168 32.0692 60.1168 29.9748 58.0224L26.6565 54.7041L40.8778 40.4829L26.6565 26.2616L33.7672 19.1509L47.9884 33.3722L55.099 26.2616L33.7672 4.92963L37.0855 1.61133Z" fill="white"/>
<path d="M26.6565 12.0405L33.7671 19.1511L26.6565 26.2618L19.5459 19.1511L26.6565 12.0405Z" fill="white"/>
<path opacity="0.95" d="M40.8777 12.0405L47.9883 19.1511L40.8777 26.2618L33.7671 19.1511L40.8777 12.0405Z" fill="white"/>
</svg>

<svg xmlns="http://www.w3.org/2000/svg" width="425" height="60" fill="none"><path fill="#fff" fill-rule="evenodd" d="M112.675 29.085c1.314-1.19 1.97-3.024 1.97-5.498v-5.223c0-2.474-.672-4.276-2.016-5.407-1.313-1.16-3.268-1.74-5.864-1.74h-8.202v32.072h3.986V30.827h4.307c2.566 0 4.506-.58 5.819-1.742Zm-2.84-13.653c.549.519.824 1.359.824 2.52v6.093c0 1.161-.275 2.016-.824 2.566-.52.52-1.36.78-2.52.78h-4.766V14.652h4.766c1.16 0 2 .26 2.52.779ZM120.65 41.594c1.252 1.13 3.222 1.695 5.91 1.695h5.911v-3.436h-6.369c-1.13 0-1.985-.26-2.566-.78-.58-.518-.87-1.252-.87-2.199v-3.436h11.271v-5.956c0-2.322-.564-4.078-1.695-5.27-1.1-1.221-2.733-1.832-4.902-1.832h-1.238c-2.626 0-4.505.565-5.635 1.695-1.131 1.13-1.695 3.009-1.695 5.636v8.247c0 2.597.626 4.475 1.878 5.636Zm9.484-15.029v3.437h-7.468v-3.207c0-.978.214-1.711.642-2.2.458-.52 1.236-.779 2.336-.779h1.741c.795 0 1.452.26 1.971.78.519.518.778 1.175.778 1.97Z" clip-rule="evenodd"/><path fill="#fff" d="M140.573 20.38h3.666v1.237c1.008-.825 2.23-1.237 3.665-1.237h3.345v3.665h-3.803c-1.008 0-1.757.336-2.245 1.008-.489.672-.733 1.33-.733 1.97V43.29h-3.895V20.38Z"/><path fill="#fff" fill-rule="evenodd" d="M159.496 20.38h-3.665v30.698h3.895V43.29h4.169c2.658 0 4.612-.58 5.865-1.741 1.283-1.16 1.924-3.024 1.924-5.59v-8.247c0-2.597-.626-4.46-1.878-5.59-1.253-1.16-3.223-1.741-5.911-1.741h-.733c-1.497 0-2.719.366-3.666 1.1v-1.1Zm.962 4.261c.489-.55 1.238-.825 2.246-.825h1.649c1.13 0 1.985.26 2.566.78.58.518.871 1.252.871 2.198v10.08c0 .947-.291 1.68-.871 2.2-.581.52-1.436.779-2.566.779h-4.627V26.336c0-.61.244-1.176.732-1.695ZM179.982 41.594c1.252 1.13 3.222 1.695 5.91 1.695h5.911v-3.436h-6.369c-1.13 0-1.985-.26-2.566-.78-.58-.518-.87-1.252-.87-2.199v-3.436h11.271v-5.956c0-2.322-.565-4.078-1.695-5.27-1.1-1.221-2.734-1.832-4.903-1.832h-1.237c-2.627 0-4.505.565-5.635 1.695-1.131 1.13-1.696 3.009-1.696 5.636v8.247c0 2.597.626 4.475 1.879 5.636Zm9.484-15.029v3.437h-7.468v-3.207c0-.978.213-1.711.641-2.2.458-.52 1.237-.779 2.337-.779h1.741c.794 0 1.451.26 1.97.78.52.518.779 1.175.779 1.97Z" clip-rule="evenodd"/><path fill="#fff" d="M204.945 43.29c-1.558 0-2.75-.505-3.574-1.513-.825-1.008-1.238-2.336-1.238-3.986V23.816h-2.978V20.38h2.978v-5.498h3.895v5.498h5.315v3.436h-5.315V38.02c0 .672.168 1.146.504 1.42.336.276.855.413 1.558.413h3.253v3.436h-4.398ZM225.542 42.235c-1.008.703-2.23 1.054-3.665 1.054h-.642c-2.474 0-4.322-.58-5.544-1.741-1.191-1.16-1.787-3.024-1.787-5.59V20.38h3.895v16.494c0 .917.259 1.65.778 2.2.55.52 1.284.779 2.2.779h1.558c.977 0 1.695-.245 2.153-.733.489-.49.764-1.039.825-1.65V20.38h3.895v22.91h-3.666v-1.055Z"/><path fill="#fff" fill-rule="evenodd" d="M248.738 42.923c.489.244.931.366 1.329.366h2.52v-3.207c-.825 0-1.421-.107-1.787-.32-.336-.245-.504-.597-.504-1.055V27.711c0-2.566-.642-4.43-1.924-5.59-1.253-1.16-3.208-1.741-5.865-1.741h-5.728v3.436h6.186c1.13 0 1.985.26 2.566.78.58.518.871 1.252.871 2.198v2.291h-4.766c-4.459 0-6.689 2.368-6.689 7.102v.917c0 2.26.519 3.864 1.558 4.81 1.068.917 2.764 1.375 5.085 1.375h3.162c1.161 0 2.092-.458 2.795-1.374.336.427.733.763 1.191 1.008Zm-2.703-3.712c-.245.428-.825.642-1.742.642h-3.161c-.794 0-1.375-.184-1.741-.55-.366-.367-.549-.947-.549-1.741V35.27c0-.794.259-1.451.778-1.97.519-.52 1.176-.78 1.97-.78h4.812v5.04c0 .673-.123 1.223-.367 1.65Z" clip-rule="evenodd"/><path fill="#fff" d="M261.738 43.29c-1.038 0-1.955-.367-2.749-1.1-.764-.733-1.145-1.894-1.145-3.483v-27.49h3.894v27.261c0 .49.122.84.366 1.054.245.214.657.32 1.238.32h.916v3.437h-2.52Z"/><path fill="#fff" fill-rule="evenodd" d="M295.77 29.085c1.313-1.19 1.97-3.024 1.97-5.498v-5.223c0-2.474-.672-4.276-2.016-5.407-1.313-1.16-3.268-1.74-5.865-1.74h-8.201v32.072h3.986V30.827h4.307c2.566 0 4.506-.58 5.819-1.742Zm-2.841-13.653c.55.519.825 1.359.825 2.52v6.093c0 1.161-.275 2.016-.825 2.566-.519.52-1.359.78-2.52.78h-4.765V14.652h4.765c1.161 0 2.001.26 2.52.779Z" clip-rule="evenodd"/><path fill="#fff" d="M303.489 20.38h3.665v1.237c1.008-.825 2.23-1.237 3.665-1.237h3.345v3.665h-3.803c-1.008 0-1.757.336-2.245 1.008-.489.672-.733 1.33-.733 1.97V43.29h-3.894V20.38Z"/><path fill="#fff" fill-rule="evenodd" d="M331.866 41.548c1.283-1.16 1.925-3.024 1.925-5.59v-8.247c0-2.566-.642-4.43-1.925-5.59-1.252-1.16-3.207-1.741-5.865-1.741h-.595c-2.658 0-4.628.58-5.911 1.74-1.252 1.162-1.878 3.025-1.878 5.59v8.248c0 2.566.626 4.43 1.878 5.59 1.283 1.16 3.253 1.741 5.911 1.741h.595c2.658 0 4.613-.58 5.865-1.741Zm-2.841-16.953c.581.52.871 1.253.871 2.2v10.08c0 .946-.29 1.68-.871 2.199-.58.52-1.435.779-2.566.779h-1.512c-1.13 0-1.985-.26-2.565-.78-.581-.518-.871-1.252-.871-2.199v-10.08c0-.947.29-1.68.871-2.199.58-.52 1.435-.779 2.565-.779h1.512c1.131 0 1.986.26 2.566.78Z" clip-rule="evenodd"/><path fill="#fff" d="M345.711 43.29c-1.558 0-2.749-.505-3.574-1.513-.825-1.008-1.237-2.336-1.237-3.986V23.816h-2.978V20.38h2.978v-5.498h3.895v5.498h5.314v3.436h-5.314V38.02c0 .672.168 1.146.504 1.42.336.276.855.413 1.557.413h3.253v3.436h-4.398Z"/><path fill="#fff" fill-rule="evenodd" d="M368.691 41.548c1.283-1.16 1.925-3.024 1.925-5.59v-8.247c0-2.566-.642-4.43-1.925-5.59-1.252-1.16-3.207-1.741-5.865-1.741h-.595c-2.658 0-4.628.58-5.911 1.74-1.253 1.162-1.879 3.025-1.879 5.59v8.248c0 2.566.626 4.43 1.879 5.59 1.283 1.16 3.253 1.741 5.911 1.741h.595c2.658 0 4.613-.58 5.865-1.741Zm-2.841-16.953c.581.52.871 1.253.871 2.2v10.08c0 .946-.29 1.68-.871 2.199-.58.52-1.435.779-2.566.779h-1.512c-1.13 0-1.985-.26-2.565-.78-.581-.518-.871-1.252-.871-2.199v-10.08c0-.947.29-1.68.871-2.199.58-.52 1.435-.779 2.565-.779h1.512c1.131 0 1.986.26 2.566.78Z" clip-rule="evenodd"/><path fill="#fff" d="M384.827 43.29c-2.688 0-4.658-.566-5.911-1.696-1.252-1.16-1.878-3.04-1.878-5.636v-8.247c0-2.566.626-4.43 1.878-5.59 1.283-1.16 3.254-1.741 5.911-1.741h4.994v3.436h-5.452c-1.131 0-1.986.26-2.566.78-.581.518-.871 1.252-.871 2.198v10.08c0 .947.29 1.68.871 2.2.58.52 1.435.779 2.566.779h5.452v3.436h-4.994Z"/><path fill="#fff" fill-rule="evenodd" d="M409.14 41.548c1.283-1.16 1.925-3.024 1.925-5.59v-8.247c0-2.566-.642-4.43-1.925-5.59-1.252-1.16-3.207-1.741-5.865-1.741h-.595c-2.658 0-4.628.58-5.911 1.74-1.252 1.162-1.878 3.025-1.878 5.59v8.248c0 2.566.626 4.43 1.878 5.59 1.283 1.16 3.253 1.741 5.911 1.741h.595c2.658 0 4.613-.58 5.865-1.741Zm-2.841-16.953c.581.52.871 1.253.871 2.2v10.08c0 .946-.29 1.68-.871 2.199-.58.52-1.435.779-2.566.779h-1.512c-1.13 0-1.985-.26-2.565-.78-.581-.518-.871-1.252-.871-2.199v-10.08c0-.947.29-1.68.871-2.199.58-.52 1.435-.779 2.565-.779h1.512c1.131 0 1.986.26 2.566.78Z" clip-rule="evenodd"/><path fill="#fff" d="M421.611 43.29c-1.039 0-1.956-.367-2.75-1.1-.763-.733-1.145-1.894-1.145-3.483v-27.49h3.895v27.261c0 .49.122.84.366 1.054.245.214.657.32 1.237.32h.917v3.437h-2.52Z"/><path fill="#fff" fill-rule="evenodd" d="M22.864 1.611a5.363 5.363 0 0 1 7.585 0l17.54 17.54-7.111 7.11-14.221-14.22-14.222 14.22 7.11 7.111 7.112-7.11 7.11 7.11-7.11 7.11L37.322 51.15a5.028 5.028 0 1 1-7.11 7.11L2.006 30.055a5.363 5.363 0 0 1 0-7.585L22.864 1.611Z" clip-rule="evenodd"/><path fill="#fff" fill-rule="evenodd" d="M37.086 1.611a5.363 5.363 0 0 1 7.584 0L65.528 22.47a5.363 5.363 0 0 1 0 7.585L37.559 58.022a5.363 5.363 0 0 1-7.584 0l-3.319-3.318 14.222-14.221-14.221-14.221 7.11-7.111 14.221 14.221 7.111-7.11L33.767 4.93l3.319-3.319Z" clip-rule="evenodd"/><path fill="#fff" d="m26.657 12.04 7.11 7.111-7.11 7.11-7.111-7.11 7.11-7.11Z"/><path fill="#fff" d="m40.878 12.04 7.11 7.111-7.11 7.11-7.11-7.11 7.11-7.11Z" opacity=".95"/></svg>
